X: 36
T: Song at Sunrise
C: Teton Sioux band 1911-1914
N: Derived from sioux036.krn
O: South Dakota, U.S.A.
N: Teton Sioux Music by Frances Densmore, 1918
Z: transcribed to **kern format by Craig Sapp
L: 1/8
M: 2/4
Q: 1/4=58
K: A clef=bass
%%linebreak <none>
E2 [I:setbarnb 1]| 
E< E E/ C3/ | 
E< E E/ C3/ | 
C2C2 ]|:  
[M:3/4]E< CC2B,2 ||  
[M:2/4]C< B, B,/ A,3/ | 
A,2A,2 | 
F,> F,F,2 | 
F,> F, F,3/ F,/ | 
E,2E,2 ||  
[M:3/4]C,2E,2E,3/ A,/ ||  
[M:2/4]F,> F, E,/ E,3/ | 
E,> F,E,2 | 
C,2C,3/ C,/ | 
C,4 | 
C,4 :|]  



